!!!!SEGMENT: pl-sa--358-a-vii-118--001_anonim--pastorella-symphonia.krn
!!!cenid: 17xx:1443
!!!COM: Anonim
!!!COM-rismID: pe30004985
!!!CDT:
!!!CNT:
!!!OPR: Pastorella
!!!OTL: Symphonia
!!!OMV: 001
!!!PDT: 1738
!!!AGN:
!!!SMS-siglum: PL-SA
!!!SMS-shelfmark: 358/A VII 118
!!!SMS-shelfwork: 001-001 M
!!!SMS-variant:
!!!SMS-altvar:
!!!NIFC-rismSourceID: 1001038385
!!!NIFC-rismChildID: 1001038385
!!!NIFC-islandoraID: none
!!!URL-pdf-islandora:
!!!URL-scan: https://bc.bdsandomierz.pl/dlibra/publication/1662/edition/1630/content @EN{Scan in the Sandomierz Diocese Digital Library} @PL{Skany w portalu Cyfrowa Biblioteka Diecezjalna w Sandomierzu}
!!!IIIF:
!!!ONB-nifc: UWAGA: części Pastorelli: 1. Symphonia (Sonata), 2. Ktoś o tej dobie płacze we żłobie
!!!AIN: 1 empty 1 organ 2 violn 2 vox
!!!key:
**kern	**kern	**kern	**kern	**kern	**kern
*part6	*part5	*part4	*part3	*part2	*part1
*staff6	*staff5	*staff4	*staff3	*staff2	*staff1
*Iorgan	*Ivioln	*Ivioln	*Iempty	*Ivox	*Ivox
*I"Organo.	*I"Violino 2do	*I"Violino 1mo.	*I"Baſso.	*I"Canto 2do.	*I"Canto. 1mo.
*I'Org.	*I'Vn II	*I'Vn I	*I'B	*I'C. II	*I'C. I
*clefF4	*clefG2	*clefG2	*clefF4	*clefC1	*clefC1
*k[b-]	*k[b-]	*k[b-]	*k[b-]	*k[b-]	*k[b-]
*F:	*F:	*F:	*F:	*F:	*F:
*M4/4	*M4/4	*M4/4	*M4/4	*M4/4	*M4/4
*met(c)	*met(c)	*met(c)	*met(c)	*met(c)	*met(c)
=1	=1	=1	=1	=1	=1
!	!	!	!	!	!LO:TX:b:i:t=Sonata Tacet
!	!	!	!LO:TX:b:i:t=Sonata Tacet	!LO:TX:b:i:t=Sonata Tacet	!LO:TX:a:B:t=Symphonia
[>1BB-/	4f/	4b-\	1ryy	1ryy	1ryy
.	4dd\	4ff\	.	.	.
.	4.b-\	4.dd\	.	.	.
.	8f/	8b-\	.	.	.
=2	=2	=2	=2	=2	=2
1BB-/_>	4ee-X\	4gg\	1ryy	1ryy	1ryy
.	8.dd\L	8.ff\L	.	.	.
.	16cc\Jk	16ee-X\Jk	.	.	.
!	!LO:TX:t=P:problem=mixed beam	!	!	!	!
.	8b-\L	8.dd\L	.	.	.
.	8f/	.	.	.	.
.	.	16cc\Jk	.	.	.
!	!	!LO:TX:t=P:problem=mixed beam	!	!	!
.	8f/	8b-\L	.	.	.
.	8d/J	8f/J	.	.	.
=3	=3	=3	=3	=3	=3
1BB-/_>	4f/	4b-\	1ryy	1ryy	1ryy
.	4dd\	4ff\	.	.	.
.	4.b-\	4.dd\	.	.	.
.	8f/	8b-\	.	.	.
=4	=4	=4	=4	=4	=4
1BB-/_>	4ee-X\	4gg\	1ryy	1ryy	1ryy
.	8.dd\L	8.ff\L	.	.	.
.	16cc\Jk	16ee-X\Jk	.	.	.
!	!LO:TX:t=P:problem=mixed beam	!	!	!	!
.	8b-\L	8.dd\L	.	.	.
.	8f/	.	.	.	.
.	.	16cc\Jk	.	.	.
!	!	!LO:TX:t=P:problem=mixed beam	!	!	!
.	8f/	8b-\L	.	.	.
.	8d/J	8f/J	.	.	.
=5	=5	=5	=5	=5	=5
1BB-/_>	4d/	4f/	1ryy	1ryy	1ryy
.	4f/	4b-\	.	.	.
!	!	!LO:LB:g=original	!	!	!
.	4.b-\	4.dd\	.	.	.
.	8f/	8b-\	.	.	.
=6	=6	=6	=6	=6	=6
1BB-/_>	4f/	4cc\	1ryy	1ryy	1ryy
.	8f/L	8cc\L	.	.	.
.	8b-/J	8dd\J	.	.	.
!	!LO:LB:g=original	!	!	!	!
.	4cc\	4ee-X\	.	.	.
.	8b-\L	8dd\L	.	.	.
.	8a\J	8cc\J	.	.	.
=7	=7	=7	=7	=7	=7
1BB-/_>	4b-\	4dd\	1ryy	1ryy	1ryy
.	4d/	4b-\	.	.	.
.	4a/	4cc\	.	.	.
.	4f/	4f/	.	.	.
=8	=8	=8	=8	=8	=8
1BB-/_>	4d/	4f/	1ryy	1ryy	1ryy
.	4f/	4b-\	.	.	.
.	4.b-/	4.dd\	.	.	.
.	8f/	8b-\	.	.	.
=9	=9	=9	=9	=9	=9
1BB-/_>	4f/	4cc\	1ryy	1ryy	1ryy
.	8f/L	8cc\L	.	.	.
.	8b-/J	8dd\J	.	.	.
.	4cc\	4ee-X\	.	.	.
.	8b-\L	8dd\L	.	.	.
.	8a\J	8cc\J	.	.	.
=10	=10	=10	=10	=10	=10
1BB-/_>	4b-\	4dd\	1ryy	1ryy	1ryy
.	4d/	4b-\	.	.	.
.	4a/	4cc\	.	.	.
.	4f/	4f/	.	.	.
!	!	!LO:LB:g=original	!	!	!
=11	=11	=11	=11	=11	=11
1BB-/_>	8.d/L	8.f/L	1ryy	1ryy	1ryy
.	16e-X/K	16g/K	.	.	.
.	8.d/	8.f/	.	.	.
.	16e-X/Jk	16g/Jk	.	.	.
.	8.d/L	8.f/L	.	.	.
.	16e-X/Jk	16g/K	.	.	.
!	!LO:LB:g=original	!	!	!	!
.	8.d/L	8.f/	.	.	.
.	16e-X/Jk	16g/Jk	.	.	.
!LO:LB:g=original	!	!	!	!	!
=12	=12	=12	=12	=12	=12
1BB-/_>	8.d/L	8.f/L	1ryy	1ryy	1ryy
.	16e-X/K	16g/K	.	.	.
.	8.d/	8.f/	.	.	.
.	16e-/Jk	16g/Jk	.	.	.
.	2d/	2f/	.	.	.
=13	=13	=13	=13	=13	=13
1BB-/_>	4f/	4b-\	1ryy	1ryy	1ryy
.	4ee-X\	4gg\	.	.	.
.	4.dd\	4.ff\	.	.	.
.	8cc\	8ee-X\	.	.	.
=14	=14	=14	=14	=14	=14
1BB-/_>	4b-/	4dd\	1ryy	1ryy	1ryy
.	8a/L	8cc\L	.	.	.
.	8g/J	8b-\J	.	.	.
!	!	!LO:TX:t=P:problem=mixed beam	!	!	!
.	8a/L	8cc\L	.	.	.
.	8g/	8b-\	.	.	.
.	8a/	8cc\	.	.	.
.	8f/J	8f/J	.	.	.
=15	=15	=15	=15	=15	=15
1BB-/_>	4f/	4b-\	1ryy	1ryy	1ryy
.	4ee-X\	4gg\	.	.	.
.	4.dd\	4.ff\	.	.	.
.	8cc\	8ee-X\	.	.	.
!	!	!LO:LB:g=original	!	!	!
=16	=16	=16	=16	=16	=16
1BB-/_>	4b-/	4dd\	1ryy	1ryy	1ryy
.	8a/L	8cc\L	.	.	.
.	8g/J	8b-\J	.	.	.
!	!	!LO:TX:t=P:problem=mixed beam	!	!	!
!	!LO:LB:g=original	!	!	!	!
.	8a/L	8cc\L	.	.	.
.	8g/	8b-\	.	.	.
.	8a/	8cc\	.	.	.
.	8f/J	8f/J	.	.	.
=17	=17	=17	=17	=17	=17
1BB-/_>	8.d/L	8.f/L	1ryy	1ryy	1ryy
.	16e-X/K	16g/K	.	.	.
.	8.d/	8.f/	.	.	.
.	16e-/Jk	16g/Jk	.	.	.
.	2d/	2f/	.	.	.
=18	=18	=18	=18	=18	=18
1BB-/]	8.d/L	8.f/L	1ryy	1ryy	1ryy
.	16e-X/K	16g/K	.	.	.
.	8.d/	8.f/	.	.	.
.	16e-/Jk	16g/Jk	.	.	.
.	2d/	2f/	.	.	.
=:|!	=:|!	=:|!	=:|!	=:|!	=:|!
*-	*-	*-	*-	*-	*-
!!!system-decoration: [(s1,s2,s3)][(s4,s5)]s6
!!!system-decoration:
!!!RDF**kern: > = above
!!!RDF**kern: < = below
!!!ENC: Mateusz Solarz
!!!END: 2020-12-03
!!!ENC: Leszek Kubiak
!!!END: 2021-12-29
!!!YEC: Copyright 2022 Narodowy Instytut Fryderyka Chopina (https://polishscores.org)
!!!YEM: License CC-BY-4.0 (https://creativecommons.org/licenses/by/4.0)
